X:1
T:The Treasures of Heaven
T:The Treasures of Heaven
T:Tullius Clinton O’Kane
T:Tullius Clinton O’Kane, 1870
T:Public Domain Courtesy of the Cyber Hymnal™
T:Public Domain Courtesy of the Cyber Hymnal™
C:Tullius Clinton O’Kane
Z:Public Domain
Z:Courtesy of the Cyber Hymnal™
%%score ( 1 2 ) ( 3 4 )
L:1/8
Q:1/4=100
M:4/4
K:Ab
V:1 treble 
V:2 treble 
V:3 bass 
V:4 bass 
V:1
 [CE]>[CE] | [CA]2 [CA]2 [CA]2 [Ec]>[Ec] | [Ec]2 [EB]2 [EB]2 [EG]>[EA] | %3
w: 1.~There’s a|crown in Heav’n for the|striv- ing soul, Which the|
w: 2.~There’s a|rest in Heav’n for the|wea- ry soul, ’Tis for|
w: 3.~There’s a|joy in Heav’n for the|mourn- ing soul; Though the|
w: 4.~There’s a|peace in Heav’n for the|trou- bled soul, Where the|
w: 5.~There’s a|home in Heav’n for the|faith- ful soul, In the|
 [EB]2 [GB]2 [GB]2 [Gd]>[Bd] | [Bd]2 [Ac]2 [Ac]2 [EA]>[EB] | [Ac]2 [Ac]2 [Ac]2 [Ae]>[Ee] | %6
w: bless- èd Je- sus Him-|self will place On the|head of each who shall|
w: all by care and by|sin op- pressed; To the|sons of God it re-|
w: tears may fall all the|earth- ly night; Yet the|clouds of sad- ness will|
w: wick- ed shall from their|troub- ling cease, And to|all the saints like a|
w: ma- ny man- sions pre-|pared a- bove, Where the|glor- i- fied shall for-|
 [Fe]2 [Fd]2 [Fd]2 (3([Fd][Ec])[FB] | [EA]2 [EA]2 [EG]2 (3([EG][FA])[GB] | %8
w: faith- ful prove, Ev- * en|un- to death, in * the|
w: main- eth sure, And * the|Pro- phet says, ’tis * a|
w: break a- way, And * re-|joic- ing comes with * the|
w: ri- ver flow, Through * the|end- less ag- es * the|
w: ev- er sing, Of * a|Sav- ior’s free and * un-|
 [Ac]3 [EB] !fermata![CA]E [CA]>[DB] | [Ec]4- [Ec]>[GB] [Ac]>[Bd] | [ce]4 z [Ac] [Bd]>[Ac] | %11
w: heav’n- ly race. Oh, may that|crown * in Heav’n be|mine, And I a-|
w: “glor- ious rest.” Oh, may that|rest * in Heav’n be|mine, And I a-|
w: morn- ing light. Oh, may that|joy * in Heav’n be|mine, And I a-|
w: stream of peace. Oh, may that|peace * in Heav’n be|mine, And I a-|
w: bound- ed love. Oh, may that|home * in Heav’n be|mine, And I a-|
 [GB]4- [GB]>[Ac] (3([GB][FA])[GB] | [Ac]4 z E [CA]>[DB] | [Ec]4- [Ec]>[Fd] [Ac]>[GB] | %14
w: mong * the an- * gels|shine; Be Thou, O|Lord! * my dai- ly|
w: mong * the an- * gels|shine; Be Thou, O|Lord! * my dai- ly|
w: mong * the an- * gels|shine; Be Thou, O|Lord! * my dai- ly|
w: mong * the an- * gels|shine; Be Thou, O|Lord! * my dai- ly|
w: mong * the an- * gels|shine; Be Thou, O|Lord! * my dai- ly|
 [FA]4 z2 [EG]>[EA] | [EB]>[Ac] [Ad]>[Ac] [Gd]2 [EG]2 | [EA]6 |] %17
w: guide, Let me|ev- er in Thy love a-|bide.|
w: guide, Let me|ev- er in Thy love a-|bide.|
w: guide, Let me|ev- er in Thy love a-|bide.|
w: guide, Let me|ev- er in Thy love a-|bide.|
w: guide, Let me|ev- er in Thy love a-|bide.|
V:2
 x2 | x8 | x8 | x8 | x8 | x8 | x8 | x8 | x5 E x2 | x8 | x8 | x8 | x5 E x2 | x8 | x8 | x8 | x6 |] %17
V:3
 [A,,A,]>[A,,A,] | [A,,A,]2 [A,,A,]2 [A,,A,]2 [A,,A,]>[A,,A,] | %2
 [E,A,]2 [E,G,]2 [E,G,]2 [E,B,]>[E,C] | [E,D]2 [E,D]2 [E,D]2 [E,B,]>[E,E] | %4
 [A,E]2 [A,E]2 [A,E]2 [A,C]>[A,D] | [A,E]2 [A,E]2 [A,E]2 [C,A,]>[C,A,] | %6
 [D,A,]2 [D,A,]2 [D,A,]2 (3:2:2[D,B,]2 [D,B,] | [E,C]2 [E,C]2 [E,B,]2 (3:2:2[E,B,]2 [E,E] | %8
 [E,E]3 [E,G,] !fermata![A,,A,] z3 | z [A,,A,] [A,,A,]>[A,,A,] [A,,A,]2 z2 | %10
 z A, [A,C]>[A,E] [A,E]2 z2 | z [E,D] [E,D]>[E,D] [E,D]2 z2 | z [A,E] [A,E]>[A,E] [A,E]2 z2 | %13
 z [A,,A,] [A,,A,]>[A,,A,] [A,,A,]2 z2 | z [D,A,] [D,A,]>[D,A,] [D,A,]2 [E,B,]>[E,C] | %15
 [E,D]>[E,E] [E,F]>[E,E] [E,E]2 [E,D]2 | [A,,A,C]6 |] %17
V:4
 x2 | x8 | x8 | x8 | x8 | x8 | x8 | x8 | x8 | x8 | x A, x6 | x8 | x8 | x8 | x8 | x8 | x6 |] %17

